X:1103
T:I Love the Youth.
M:C
L:1/8
Q:1/4=104
N:bar 3 is printed |g2b2 b>c'ba|
Z:Jack Campin * www.campin.me.uk * 2009
K:B Minor
F2 B4    AB  |d2 e4    de   |f2 b2   b>c'ba   |f>afe  d4    |
e2(ef) edef  |b2 bc' Ta3f/e/|de`fe  Td2  BA   |F2 B2  B4   :|
b>afe Td3e/f/|a2 a>b Tb3a/f/|b>af>e Td3   e/f/|a2 e2  e3f/a/|
b>ad>b a3f/e/|fe`dB  Td3e/f/|a>fa>f Td3   B/A/|F2 B>c B4   :|

